X: 1
T:Miss Jean Stewart [1]
M:C
L:1/8
R:Strathspey
S:Glen Collection, vol. 2 ��(1895)
Z:AK/Fiddler's Companion
K:A
|:\
C<A, A<c B>A F2 | A<EA<c e>f e<c |\
d>e f/e/d/c/ d/c/B/A/ F2 |1 A<EF<E AEAc :|2 A>Bc>B A<EA<c ||
|:\
e>fec d/c/B/A/ F2 | e>fec e<ae<c |\
d>e f/e/d/c/ d/c/B/A/ F2 |1 A<EF<E AEAc :|2 A>Bc>B A<EA<c|]
